docs/.gitbook/assets/icon-highlight-16@dark.svg

<svg width="32" height="32" viewBox="0 0 16 16" fill="none" xmlns="http://www.w3.org/2000/svg">
<rect x="0" y="0" width="16" height="16" fill="#181c1f"/>
<path fill-rule="evenodd" clip-rule="evenodd" d="M11.2795 1.16594C11.5779 0.925591 12.0094 0.948761 12.2803 1.21967L14.7803 3.71968C15.0513 3.99059 15.0744 4.42214 14.8341 4.7205L8.49335 12.5918C7.7957 13.4578 6.81631 14.0516 5.72582 14.2697L2.1471 14.9854C1.9012 15.0346 1.647 14.9577 1.46968 14.7803L1.21968 14.5303C1.04236 14.353 0.965398 14.0988 1.01458 13.8529L1.73032 10.2742C1.94842 9.18371 2.54222 8.20431 3.40826 7.50667L11.2795 1.16594ZM11.696 2.75662L4.34926 8.6748C4.23583 8.76617 4.12923 8.86461 4.02995 8.96929L7.03073 11.9701C7.13541 11.8708 7.23385 11.7642 7.32522 11.6508L13.2434 4.30405L11.696 2.75662ZM5.67865 12.7393L3.26072 10.3214C3.23773 10.4026 3.21786 10.485 3.20119 10.5684L2.64358 13.3564L5.43164 12.7988C5.51498 12.7822 5.59737 12.7623 5.67865 12.7393ZM14.25 15H9.75001C9.3358 15 9.00001 14.6642 9.00001 14.25C9.00001 13.8358 9.3358 13.5 9.75001 13.5H14.25C14.6642 13.5 15 13.8358 15 14.25C15 14.6642 14.6642 15 14.25 15Z" fill="#fff"/>
</svg>

<svg xmlns="http://www.w3.org/2000/svg" width="32" height="32" fill="none" viewBox="0 0 16 16"><path fill="#181c1f" d="M0 0h16v16H0z"/><path fill="#fff" fill-rule="evenodd" d="M11.28 1.166a.75.75 0 0 1 1 .054l2.5 2.5a.75.75 0 0 1 .054 1l-6.34 7.872a4.75 4.75 0 0 1-2.768 1.678l-3.579.715a.75.75 0 0 1-.677-.205l-.25-.25a.75.75 0 0 1-.205-.677l.715-3.579a4.75 4.75 0 0 1 1.678-2.767zm.416 1.59-7.347 5.92a3 3 0 0 0-.319.294l3 3.001q.158-.15.295-.32l5.918-7.346zM5.679 12.74 3.26 10.321a3 3 0 0 0-.06.247l-.557 2.788 2.788-.557a3 3 0 0 0 .247-.06M14.25 15h-4.5a.75.75 0 0 1 0-1.5h4.5a.75.75 0 0 1 0 1.5" clip-rule="evenodd"/></svg>
